X:1295
T:the Dawn
M:4/4
O:Ireland
R:Reel
Z:Richard Robinson 
%%TUNEURL: http://www.leeds.ac.uk/music/Info/RRTuneBk/gettune/00000bf9.html
%%ID:00000bf9
K:D
D2FA G2Bd| A2ce d2fd| edfd gdfd| egfe dBAF|\
D2FA G2Bd| A2ce defg| a2af c'bag|1 fgef d2AF:|2 fgef d3\
||A|\
d2dA BAFA| B2ec dcBA| (3ABA eA fAeA| dfAd fABc|\
d2dA BAFA| B2ec dcBA| (3ABA eA fdAG| FGEF D3||\
A|\
d2dA BAFA| B2ec dcBA| (3ABA eA fAeA| dfAd fabc'| \
d'2c'd' bc'ab| gafg efde| cdBc ABGA| FGEF D4|]
